!! Isochronous pitch passage.
!! Bass-line.
!! From J.S. Bach, Orchestral Suite No. 3, "Air" movement, measure 9ff.
!! Basses
!! 4/4 meter
**kern	**metpos
*M4/4	*M4/4
*tb8	*tb8
=	=
8r	1
8r	4
8r	3
8r	4
8FF	2
8F	4
8E	3
8EE	4
=	=
8DD#	1
8D#	4
8F#	3
8BB	4
8E	2
8e	4
8dn	3
8Dn	4
=	=
8C#	1
8c#	4
8B	3
8BB	4
8AA#	2
8BB	4
8C#	3
8AA	4
=	=
8BB	1
8G	4
8E	3
8F#	4
8BB	2
8B	4
8An	3
8AAn	4
=	=
8GG#	1
8G#	4
8F#	3
8FF#	4
8EE	2
8E	4
8D	3
8DD	4
=	=
8CC#	1
8C#	4
8D	3
8E	4
8AA	2
8A	4
8Gn	3
8GGn	4
=	=
8FF#	1
8F#	4
8G	3
8GG	4
8GG#	2
8G#	4
8A	3
8AA	4
=	=
8AA#	1
8A#	4
8B	3
8BB	4
8E	2
8e	4
8dn	3
8Dn	4
=	=
8C#	1
8c#	4
8A	3
8c#	4
8d	2
8D	4
8Cn	3
8cn	4
=	=
8B	1
8BB	4
8AA	3
8A	4
8G	2
8GG	4
8FF#	3
8F#	4
=	=
8E	1
8EE	4
8DD	3
8D	4
8C#	2
8AA	4
8D	3
8G	4
=	=
8A	1
8G	4
8A	3
8AA	4
8r	2
8r	4
8r	3
8r	4
=	=
*-	*-
